assets/icons/computer-filled.svg

<?xml version="1.0" encoding="UTF-8" standalone="no"?>
<svg
   viewBox="0 0 24 24"
   height="24"
   width="24"
   version="1.1"
   id="svg10"
   sodipodi:docname="computer-filled.svg"
   inkscape:version="1.2 (1:1.2.1+202207142221+cd75a1ee6d)"
   xmlns:inkscape="http://www.inkscape.org/namespaces/inkscape"
   xmlns:sodipodi="http://sodipodi.sourceforge.net/DTD/sodipodi-0.dtd"
   xmlns="http://www.w3.org/2000/svg"
   xmlns:svg="http://www.w3.org/2000/svg">
  <defs
     id="defs14" />
  <sodipodi:namedview
     id="namedview12"
     pagecolor="#ffffff"
     bordercolor="#666666"
     borderopacity="1.0"
     inkscape:pageshadow="2"
     inkscape:pageopacity="0.0"
     inkscape:pagecheckerboard="0"
     showgrid="true"
     inkscape:zoom="28"
     inkscape:cx="11.892857"
     inkscape:cy="8.5"
     inkscape:window-width="1920"
     inkscape:window-height="1043"
     inkscape:window-x="0"
     inkscape:window-y="0"
     inkscape:window-maximized="1"
     inkscape:current-layer="svg10"
     inkscape:showpageshadow="2"
     inkscape:deskcolor="#d1d1d1">
    <inkscape:grid
       type="xygrid"
       id="grid9" />
    <inkscape:grid
       type="xygrid"
       id="grid826"
       dotted="true"
       spacingx="0.5"
       spacingy="0.5"
       empspacing="10" />
  </sodipodi:namedview>
  <path
     id="path861"
     style="color:#000000;fill:#808080;-inkscape-stroke:none;fill-opacity:1"
     d="M 4.7871094 2 C 4.1101643 2.00559 3.5365067 2.0481532 3.0273438 2.3027344 C 2.6879017 2.4724554 2.3973382 2.7651684 2.2304688 3.140625 C 2.063599 3.5160816 2 3.9583344 2 4.5 L 2 14.5 C 2 15.041665 2.0635991 15.483918 2.2304688 15.859375 C 2.3973382 16.234832 2.6879017 16.527544 3.0273438 16.697266 C 3.7062277 17.036707 4.500002 17 5.5 17 L 10 17 L 10 18 L 14 18 L 14 17 L 18.5 17 C 19.499998 17 20.293772 17.036709 20.972656 16.697266 C 21.312099 16.527544 21.602661 16.234832 21.769531 15.859375 C 21.936401 15.483918 22 15.041665 22 14.5 L 22 4.5 C 22 3.9583344 21.9364 3.5160816 21.769531 3.140625 C 21.602661 2.7651684 21.312099 2.4724554 20.972656 2.3027344 C 20.293772 1.9632923 19.499998 2 18.5 2 L 5.5 2 C 5.2500005 2 5.0127577 1.99814 4.7871094 2 z M 4.3496094 3 L 19.650391 3 C 20.398289 3 21 3.5805828 21 4.3007812 L 21 14.699219 C 21 15.419417 20.398289 16 19.650391 16 L 4.3496094 16 C 3.6017109 16 3 15.419417 3 14.699219 L 3 4.3007812 C 3 3.5805828 3.6017109 3 4.3496094 3 z M 5.1992188 4 C 4.5344201 4 4 4.4902106 4 5.0996094 L 4 13.900391 C 4 14.509789 4.5344201 15 5.1992188 15 L 18.800781 15 C 19.46558 15 20 14.509789 20 13.900391 L 20 5.0996094 C 20 4.4902106 19.46558 4 18.800781 4 L 5.1992188 4 z " />
  <path
     style="color:#000000;fill:#808080;-inkscape-stroke:none;fill-opacity:1"
     d="m 6,19 -4,1.5 v 1.5 h 20 v -1.5 l -4,-1.5 z"
     id="path406" />
</svg>

<svg height="24" width="24" xmlns="http://www.w3.org/2000/svg"><path style="color:#000;fill:gray;-inkscape-stroke:none;fill-opacity:1" d="M4.787 2c-.677.006-1.25.048-1.76.303-.34.17-.63.462-.797.838C2.064 3.516 2 3.958 2 4.5v10c0 .542.064.984.23 1.36.167.375.458.668.797.837.68.34 1.473.303 2.473.303H10v1h4v-1h4.5c1 0 1.794.037 2.473-.303.34-.17.63-.462.797-.838.166-.375.23-.817.23-1.359v-10c0-.542-.064-.984-.23-1.36a1.72 1.72 0 0 0-.797-.837C20.293 1.963 19.5 2 18.5 2h-13c-.25 0-.487-.002-.713 0zM4.35 3h15.3c.748 0 1.35.58 1.35 1.3v10.4c0 .72-.602 1.3-1.35 1.3H4.35C3.602 16 3 15.42 3 14.7V4.3C3 3.58 3.602 3 4.35 3zm.85 1C4.533 4 4 4.49 4 5.1v8.8c0 .61.534 1.1 1.2 1.1h13.6c.666 0 1.2-.49 1.2-1.1V5.1c0-.61-.534-1.1-1.2-1.1H5.2zM6 19l-4 1.5V22h20v-1.5L18 19z"/></svg>
